X:7728
T:Jack McCann
C:Chris Crilly
D:Barde
R:Reel
M:C|
L:1/8
K:Ador
A,2 (3B,A,G, A,2 (3B,A,G, | A,B,CD E2 DC | B,DG,B, DG B2 | BAGE DB,G,B, |
A,2 (3B,A,G, A,2 (3B,A,G, | A,B,CD E2 DC | B,DG,B, DG B2 | BAGE A4 :|
A2 BA Bdef | gfga gfed | BcBA GFGE | DEGA BGcB | 
[1 A2 BA Bdef | gfga gfed | BcBA GFGE | DEGB A4 :|
[2 A2 BA Bdef |gfga ged2 | g2 (3fga gedB | cBAG FED B, ||
